applications/gedit.svg

<svg 
    xmlns="http://www.w3.org/2000/svg" width="48" height="48">
    <defs>
        <filter id="a">
            <feGaussianBlur in="SourceAlpha" stdDeviation=".8"/>
            <feOffset dy=".4"/>
            <feComponentTransfer>
                <feFuncA slope=".3" type="linear"/>
            </feComponentTransfer>
            <feMerge>
                <feMergeNode/>
                <feMergeNode in="SourceGraphic"/>
            </feMerge>
        </filter>
        <clipPath id="c">
            <rect fill="none" stroke="#607d8b" stroke-linecap="round" stroke-linejoin="round" stroke-width=".1" width="32" height="44" x="8" y="2" rx="2" ry="2"/>
        </clipPath>
        <clipPath id="b">
            <rect fill="none" stroke="#607d8b" stroke-linecap="round" stroke-linejoin="round" stroke-width=".1" width="32" height="44" x="8" y="-30" rx="2" ry="2"/>
        </clipPath>
    </defs>
    <g transform="translate(0 32)">
        <rect fill="#fafafa" fill-rule="evenodd" width="32" height="44" x="8" y="-30" filter="url(#a)" rx="2" ry="2"/>
        <circle fill="#f44336" cx="24" cy="-18" r="6"/>
        <path fill-rule="evenodd" stroke="#000" stroke-linejoin="round" stroke-width="2" opacity=".1" d="M22-9l4 4v-4L40 5v9H20V-1z" clip-path="url(#b)"/>
        <path fill="#b0bec5" fill-rule="evenodd" stroke="#b0bec5" stroke-linecap="round" stroke-linejoin="round" stroke-width="2" d="M22 23l-6 13 4 10h8l4-10-6-13v11.541A4 4 0 0 1 28 38a4 4 0 0 1-4 4 4 4 0 0 1-4-4 4 4 0 0 1 2-3.459V23z" clip-path="url(#c)" filter="url(#a)" transform="translate(0 -32)"/>
    </g>
</svg>

<?xml version="1.0" encoding="UTF-8" standalone="no"?>
<!-- Created with Inkscape (http://www.inkscape.org/) -->

<svg
   xmlns:dc="http://purl.org/dc/elements/1.1/"
   xmlns:cc="http://creativecommons.org/ns#"
   xmlns:rdf="http://www.w3.org/1999/02/22-rdf-syntax-ns#"
   xmlns:svg="http://www.w3.org/2000/svg"
   xmlns="http://www.w3.org/2000/svg"
   xmlns:sodipodi="http://sodipodi.sourceforge.net/DTD/sodipodi-0.dtd"
   xmlns:inkscape="http://www.inkscape.org/namespaces/inkscape"
   width="48"
   height="48"
   id="svg4152"
   version="1.1"
   inkscape:version="0.92.2 5c3e80d, 2017-08-06"
   viewBox="0 0 48 48"
   sodipodi:docname="gedit.svg">
  <defs
     id="defs4154">
    <filter
       style="color-interpolation-filters:sRGB;"
       inkscape:label="Drop Shadow"
       id="filter4154">
      <feFlood
         flood-opacity="0.298039"
         flood-color="rgb(0,0,0)"
         result="flood"
         id="feFlood4156" />
      <feComposite
         in="flood"
         in2="SourceGraphic"
         operator="in"
         result="composite1"
         id="feComposite4158" />
      <feGaussianBlur
         in="composite1"
         stdDeviation="0.8"
         result="blur"
         id="feGaussianBlur4160" />
      <feOffset
         dx="0"
         dy="0.4"
         result="offset"
         id="feOffset4162" />
      <feComposite
         in="SourceGraphic"
         in2="offset"
         operator="over"
         result="composite2"
         id="feComposite4164" />
    </filter>
    <filter
       style="color-interpolation-filters:sRGB;"
       inkscape:label="Drop Shadow"
       id="filter4202"
       x="-0.14999999999999999"
       width="1.3">
      <feFlood
         flood-opacity="0.298039"
         flood-color="rgb(0,0,0)"
         result="flood"
         id="feFlood4204" />
      <feComposite
         in="flood"
         in2="SourceGraphic"
         operator="in"
         result="composite1"
         id="feComposite4206" />
      <feGaussianBlur
         in="composite1"
         stdDeviation="0.8"
         result="blur"
         id="feGaussianBlur4208" />
      <feOffset
         dx="0"
         dy="0.4"
         result="offset"
         id="feOffset4210" />
      <feComposite
         in="SourceGraphic"
         in2="offset"
         operator="over"
         result="composite2"
         id="feComposite4212" />
    </filter>
    <filter
       style="color-interpolation-filters:sRGB;"
       inkscape:label="Drop Shadow"
       id="filter4262"
       x="-0.14999999999999999"
       width="1.3">
      <feFlood
         flood-opacity="0.298039"
         flood-color="rgb(0,0,0)"
         result="flood"
         id="feFlood4264" />
      <feComposite
         in="flood"
         in2="SourceGraphic"
         operator="in"
         result="composite1"
         id="feComposite4266" />
      <feGaussianBlur
         in="composite1"
         stdDeviation="0.8"
         result="blur"
         id="feGaussianBlur4268" />
      <feOffset
         dx="0"
         dy="0.4"
         result="offset"
         id="feOffset4270" />
      <feComposite
         in="SourceGraphic"
         in2="offset"
         operator="over"
         result="composite2"
         id="feComposite4272" />
    </filter>
    <clipPath
       clipPathUnits="userSpaceOnUse"
       id="clipPath4274">
      <rect
         style="color:#000000;clip-rule:nonzero;display:inline;overflow:visible;visibility:visible;opacity:1;isolation:auto;mix-blend-mode:normal;color-interpolation:sRGB;color-interpolation-filters:linearRGB;solid-color:#000000;solid-opacity:1;fill:none;fill-opacity:1;fill-rule:nonzero;stroke:#607d8b;stroke-width:0.1;stroke-linecap:round;stroke-linejoin:round;stroke-miterlimit:4;stroke-dasharray:none;stroke-dashoffset:0;stroke-opacity:1;color-rendering:auto;image-rendering:auto;shape-rendering:auto;text-rendering:auto;enable-background:accumulate"
         id="rect4276"
         width="32"
         height="44"
         x="8"
         y="2"
         rx="2"
         ry="2" />
    </clipPath>
    <clipPath
       clipPathUnits="userSpaceOnUse"
       id="clipPath4278">
      <rect
         style="color:#000000;clip-rule:nonzero;display:inline;overflow:visible;visibility:visible;opacity:1;isolation:auto;mix-blend-mode:normal;color-interpolation:sRGB;color-interpolation-filters:linearRGB;solid-color:#000000;solid-opacity:1;fill:none;fill-opacity:1;fill-rule:nonzero;stroke:#607d8b;stroke-width:0.1;stroke-linecap:round;stroke-linejoin:round;stroke-miterlimit:4;stroke-dasharray:none;stroke-dashoffset:0;stroke-opacity:1;color-rendering:auto;image-rendering:auto;shape-rendering:auto;text-rendering:auto;enable-background:accumulate"
         id="rect4280"
         width="32"
         height="44"
         x="8"
         y="-30"
         rx="2"
         ry="2" />
    </clipPath>
  </defs>
  <sodipodi:namedview
     id="base"
     pagecolor="#ededed"
     bordercolor="#000000"
     borderopacity="0.49803922"
     inkscape:pageopacity="0"
     inkscape:pageshadow="2"
     inkscape:zoom="15.696216"
     inkscape:cx="7.3780823"
     inkscape:cy="32.743599"
     inkscape:current-layer="layer1"
     showgrid="false"
     inkscape:grid-bbox="true"
     inkscape:document-units="px"
     inkscape:showpageshadow="false"
     borderlayer="true"
     inkscape:window-width="3840"
     inkscape:window-height="2024"
     inkscape:window-x="0"
     inkscape:window-y="64"
     inkscape:window-maximized="1">
    <inkscape:grid
       type="xygrid"
       id="grid4700"
       color="#000000"
       opacity="0.0627451"
       empcolor="#000000"
       empopacity="0.1254902"
       empspacing="4"
       spacingx="2"
       spacingy="2" />
  </sodipodi:namedview>
  <metadata
     id="metadata4157">
    <rdf:RDF>
      <cc:Work
         rdf:about="">
        <dc:format>image/svg+xml</dc:format>
        <dc:type
           rdf:resource="http://purl.org/dc/dcmitype/StillImage" />
        <dc:title />
      </cc:Work>
    </rdf:RDF>
  </metadata>
  <g
     id="layer1"
     inkscape:label="Layer 1"
     inkscape:groupmode="layer"
     transform="translate(0,32)">
    <rect
       style="color:#000000;clip-rule:nonzero;display:inline;overflow:visible;visibility:visible;opacity:1;isolation:auto;mix-blend-mode:normal;color-interpolation:sRGB;color-interpolation-filters:linearRGB;solid-color:#000000;solid-opacity:1;fill:#fafafa;fill-opacity:1;fill-rule:evenodd;stroke:none;stroke-width:0.1;stroke-linecap:round;stroke-linejoin:round;stroke-miterlimit:4;stroke-dasharray:none;stroke-dashoffset:0;stroke-opacity:0.25098039;color-rendering:auto;image-rendering:auto;shape-rendering:auto;text-rendering:auto;enable-background:accumulate;filter:url(#filter4154)"
       id="rect4142-6-3"
       width="32"
       height="44"
       x="8"
       y="-30"
       ry="2"
       rx="2" />
    <circle
       style="color:#000000;clip-rule:nonzero;display:inline;overflow:visible;visibility:visible;opacity:1;isolation:auto;mix-blend-mode:normal;color-interpolation:sRGB;color-interpolation-filters:linearRGB;solid-color:#000000;solid-opacity:1;fill:#f44336;fill-opacity:1;fill-rule:nonzero;stroke:none;stroke-width:0.1;stroke-linecap:butt;stroke-linejoin:round;stroke-miterlimit:4;stroke-dasharray:none;stroke-dashoffset:0;stroke-opacity:1;color-rendering:auto;image-rendering:auto;shape-rendering:auto;text-rendering:auto;enable-background:accumulate"
       id="path4138"
       cx="24"
       cy="-18"
       r="6" />
    <path
       style="opacity:0.1;fill:#000000;fill-opacity:1;fill-rule:evenodd;stroke:#000000;stroke-width:2;stroke-linecap:butt;stroke-linejoin:round;stroke-miterlimit:4;stroke-dasharray:none;stroke-opacity:1"
       d="m 22,-8.9999996 4,4 0,-4 L 40,5 l 0,9 -20,0 0,-14.9999996 z"
       id="path4233"
       inkscape:connector-curvature="0"
       sodipodi:nodetypes="cccccccc"
       clip-path="url(#clipPath4278)" />
    <path
       style="fill:#b0bec5;fill-opacity:1;fill-rule:evenodd;stroke:#b0bec5;stroke-width:2;stroke-linecap:round;stroke-linejoin:round;stroke-miterlimit:4;stroke-dasharray:none;stroke-opacity:1;filter:url(#filter4262)"
       d="M 22 23 L 16 36 L 20 46 L 28 46 L 32 36 L 26 23 L 26 34.541016 A 4 4 0 0 1 28 38 A 4 4 0 0 1 24 42 A 4 4 0 0 1 20 38 A 4 4 0 0 1 22 34.541016 L 22 23 z "
       transform="translate(0,-32)"
       id="path4140"
       clip-path="url(#clipPath4274)" />
  </g>
</svg>
